icons/tokens/0xa283aA7CfBB27EF0cfBcb2493dD9F4330E0fd304/logo.svg

<svg width="32" height="32" viewBox="0 0 32 32" fill="none" xmlns="http://www.w3.org/2000/svg">
<path d="M32 16C32 13.9059 31.5834 11.8118 30.7821 9.87712C29.9808 7.9424 28.7946 6.16704 27.3136 4.6864C25.833 3.20544 24.0576 2.0192 22.1229 1.21792C20.1882 0.41664 18.0941 0 16 0C13.9059 0 11.8118 0.41664 9.87712 1.21792C7.9424 2.0192 6.16704 3.20544 4.6864 4.6864C3.20544 6.16704 2.0192 7.9424 1.21792 9.87712C0.41664 11.8118 0 13.9059 0 16C0 18.0941 0.41664 20.1882 1.21792 22.1229C2.0192 24.0576 3.20544 25.833 4.6864 27.3136C6.16704 28.7946 7.9424 29.9808 9.87712 30.7821C11.8118 31.5834 13.9059 32 16 32C18.0941 32 20.1882 31.5834 22.1229 30.7821C24.0576 29.9808 25.833 28.7946 27.3136 27.3136C28.7946 25.833 29.9808 24.0576 30.7821 22.1229C31.5834 20.1882 32 18.0941 32 16Z" fill="url(#paint0_linear)"/>
<path fill-rule="evenodd" clip-rule="evenodd" d="M16 19.7459C18.6371 19.7459 20.7101 19.5946 22.3437 19.3411C23.9773 19.0877 25.1715 18.7322 26.0144 18.1907C26.8576 17.649 27.3494 16.9213 27.6461 16.0877C27.9427 15.2544 28.0442 14.3152 27.8784 13.2086C27.7126 12.1018 27.28 10.8275 26.464 9.62016C25.648 8.4128 24.4493 7.27232 22.8387 6.27136C21.2282 5.27072 19.2061 4.4096 16 4.4096C12.7939 4.4096 10.7718 5.27072 9.16127 6.27136C7.55071 7.27232 6.35199 8.4128 5.53599 9.62016C4.71999 10.8275 4.28735 12.1018 4.12159 13.2086C3.95583 14.3152 4.05727 15.2544 4.35391 16.0877C4.65055 16.9213 5.14239 17.649 5.98559 18.1907C6.82847 18.7322 8.02271 19.0877 9.65631 19.3411C11.2899 19.5946 13.3629 19.7459 16 19.7459Z" fill="url(#paint1_linear)"/>
<g filter="url(#filter0_f)">
<path fill-rule="evenodd" clip-rule="evenodd" d="M16 10.3488C18.6384 10.3488 21.287 10.0397 22.7488 9.79712C24.2102 9.55424 24.4851 9.3776 24.5488 9.16672C24.6125 8.95584 24.4656 8.7104 23.9257 8.21024C23.3862 7.70976 22.4544 6.95456 21.2745 6.30464C20.095 5.65472 18.6678 5.11008 16 5.05152C13.3321 5.11008 11.9049 5.65472 10.7254 6.30464C9.54559 6.95456 8.61375 7.70976 8.07423 8.21024C7.53439 8.7104 7.38751 8.95584 7.45119 9.16672C7.51487 9.3776 7.78975 9.55424 9.25119 9.79712C10.7129 10.0397 13.3616 10.3488 16 10.3488Z" fill="url(#paint2_linear)"/>
</g>
<g filter="url(#filter1_f)">
<path fill-rule="evenodd" clip-rule="evenodd" d="M16 14.0374C19.2774 14.0374 21.9498 14.1667 23.545 14.5533C25.1402 14.9398 25.6579 15.5834 25.9366 16.007C26.2154 16.431 26.2544 16.6349 26.184 16.8704C26.1133 17.1059 25.9328 17.3728 25.3597 17.6669C24.7869 17.9613 23.8214 18.2832 22.503 18.5616C21.1846 18.8403 19.513 19.0758 16 19.0992C12.487 19.0758 10.8154 18.8403 9.49696 18.5616C8.17856 18.2832 7.21312 17.9613 6.64032 17.6669C6.0672 17.3728 5.88672 17.1059 5.816 16.8704C5.7456 16.6349 5.78464 16.431 6.06336 16.007C6.34208 15.5834 6.85984 14.9398 8.45504 14.5533C10.0502 14.1667 12.7226 14.0374 16 14.0374Z" fill="url(#paint3_linear)"/>
</g>
<path fill-rule="evenodd" clip-rule="evenodd" d="M9.88928 15.0973C9.19584 15.7613 9.3024 17.016 10.0835 17.6138C10.865 18.2115 12.3203 18.1517 13.0141 17.4877C13.7078 16.824 13.6394 15.5562 12.8582 14.9587C12.0771 14.361 10.583 14.4336 9.88928 15.0973Z" fill="url(#paint4_linear)"/>
<path fill-rule="evenodd" clip-rule="evenodd" d="M4.96833 16.5008C5.12641 16.4115 5.15969 15.808 5.03681 15.2973C4.91393 14.7862 4.63457 14.368 4.47649 14.4576C4.31841 14.5469 4.28193 15.1437 4.40481 15.6547C4.52769 16.1654 4.81025 16.5904 4.96833 16.5008Z" fill="url(#paint5_linear)"/>
<path fill-rule="evenodd" clip-rule="evenodd" d="M17.5018 12.6698C16.1504 13.6746 16.105 15.9136 17.2704 17.0886C18.4362 18.264 20.8125 18.3754 22.1638 17.3706C23.5155 16.3658 23.8416 14.2448 22.6758 13.0698C21.5104 11.8947 18.8531 11.6653 17.5018 12.6698Z" fill="url(#paint6_linear)"/>
<path fill-rule="evenodd" clip-rule="evenodd" d="M5.61505 12.3658C5.12833 13.3456 5.21569 14.5418 5.86145 15.0653C6.50689 15.5885 7.71073 15.4394 8.59841 14.8118C9.48641 14.1843 10.0586 13.0787 9.94305 12.1738C9.82785 11.2688 9.02529 10.5645 8.09377 10.5936C7.16225 10.623 6.10177 11.3862 5.61505 12.3658Z" fill="url(#paint7_linear)"/>
<path fill-rule="evenodd" clip-rule="evenodd" d="M15.4282 6.54976C15.249 6.90272 15.4022 7.37376 15.8019 7.608C16.2013 7.84224 16.8467 7.83968 17.2653 7.62816C17.6835 7.41664 17.8749 6.99584 17.7312 6.64416C17.5875 6.29248 17.1091 6.0096 16.6141 5.9856C16.119 5.96192 15.6074 6.1968 15.4282 6.54976Z" fill="#F8F7F1"/>
<path fill-rule="evenodd" clip-rule="evenodd" d="M21.5834 19.4474C20.0794 19.6365 18.2438 19.7459 16 19.7459C13.7562 19.7459 11.9206 19.6365 10.4166 19.4474C9.59455 23.2413 9.59551 24.0934 9.64863 24.6976C9.70271 25.3146 9.81119 25.673 10.1155 26.0106C10.4198 26.3485 10.92 26.6653 11.8362 26.9469C12.7149 27.2173 13.976 27.455 16 27.4803C18.024 27.455 19.2851 27.2173 20.1638 26.9469C21.08 26.6653 21.5802 26.3485 21.8845 26.0106C22.1888 25.673 22.2973 25.3146 22.3514 24.6976C22.4045 24.0934 22.4054 23.2413 21.5834 19.4474Z" fill="url(#paint8_linear)"/>
<path fill-rule="evenodd" clip-rule="evenodd" d="M11.665 5.06566C10.6992 5.39398 9.88832 5.81702 9.16128 6.26886C8.87456 6.4471 8.60096 6.62918 8.34016 6.81606C8.02784 7.13414 7.93312 7.62976 8.27648 7.7904C8.61664 7.94944 9.3856 7.78272 10.1203 7.48064C10.8547 7.17888 11.5549 6.74176 11.9325 6.27904C12.3101 5.81632 12.3654 5.32832 12.0954 5.15072C11.9917 5.08224 11.84 5.05766 11.665 5.06566Z" fill="#F8F7F1"/>
<path fill-rule="evenodd" clip-rule="evenodd" d="M20.2016 5.37792C19.6487 5.256 19.1248 5.256 18.816 5.42624C18.5075 5.5968 18.4144 5.93728 18.441 6.3408C18.4675 6.74432 18.6141 7.21024 19.0352 7.7088C19.4563 8.20704 20.152 8.73728 20.9034 9.00736C21.6547 9.27744 22.4615 9.28704 22.9872 9.10368C23.5127 8.92064 23.7568 8.54432 23.7667 8.16992C23.7763 7.79552 23.5514 7.4224 23.2042 7.0592C22.857 6.696 22.3875 6.3424 21.8621 6.04352C21.3363 5.74464 20.7546 5.50016 20.2016 5.37792Z" fill="#F8F7F1"/>
<path fill-rule="evenodd" clip-rule="evenodd" d="M27.9123 14.9811C27.9824 14.439 27.9846 13.8522 27.888 13.2086C27.807 12.6675 27.6534 12.0864 27.431 11.4928C27.0406 11.0122 26.7565 10.9533 26.4714 11.0352C26.2909 11.087 26.1094 11.1949 25.9952 11.4096C25.881 11.6243 25.8339 11.9459 25.848 12.3654C25.8624 12.7853 25.9379 13.303 26.0787 13.7213C26.2195 14.1398 26.4256 14.4589 26.6646 14.7334C27.0464 15.1718 27.5139 15.4973 27.9123 14.9811Z" fill="url(#paint9_linear)"/>
<g filter="url(#filter2_f)">
<path fill-rule="evenodd" clip-rule="evenodd" d="M16 26.7398C17.5207 26.7398 18.9479 26.4896 19.8237 26.2419C20.6992 25.9942 21.0227 25.7491 21.2042 25.4742C21.3859 25.1997 21.425 24.8957 21.4103 24.2973C21.3955 23.6989 21.3271 22.8061 21.2535 22.1341C21.1799 21.4621 21.1015 21.0109 20.7312 20.8304C20.361 20.6502 19.6992 20.7408 19.1191 20.8205C18.5386 20.9002 18.04 20.969 17.2768 21.0032C16.5136 21.0374 15.4864 21.0374 14.7232 21.0032C13.96 20.969 13.4615 20.9002 12.881 20.8205C12.3008 20.7408 11.6391 20.6502 11.2688 20.8304C10.8986 21.0109 10.8202 21.4621 10.7466 22.1341C10.673 22.8061 10.6045 23.6989 10.5898 24.2973C10.5751 24.8957 10.6141 25.1997 10.7959 25.4742C10.9773 25.7491 11.3008 25.9942 12.1763 26.2419C13.0522 26.4896 14.4794 26.7398 16 26.7398Z" fill="url(#paint10_radial)"/>
</g>
<defs>
<filter id="filter0_f" x="5.94226" y="3.55647" width="20.1154" height="8.28739" filterUnits="userSpaceOnUse" color-interpolation-filters="sRGB">
<feFlood flood-opacity="0" result="BackgroundImageFix"/>
<feBlend mode="normal" in="SourceGraphic" in2="BackgroundImageFix" result="shape"/>
<feGaussianBlur stdDeviation="0.747527" result="effect1_foregroundBlur"/>
</filter>
<filter id="filter1_f" x="4.29041" y="12.5424" width="23.4192" height="8.05187" filterUnits="userSpaceOnUse" color-interpolation-filters="sRGB">
<feFlood flood-opacity="0" result="BackgroundImageFix"/>
<feBlend mode="normal" in="SourceGraphic" in2="BackgroundImageFix" result="shape"/>
<feGaussianBlur stdDeviation="0.747527" result="effect1_foregroundBlur"/>
</filter>
<filter id="filter2_f" x="9.09189" y="19.2307" width="13.8162" height="9.00418" filterUnits="userSpaceOnUse" color-interpolation-filters="sRGB">
<feFlood flood-opacity="0" result="BackgroundImageFix"/>
<feBlend mode="normal" in="SourceGraphic" in2="BackgroundImageFix" result="shape"/>
<feGaussianBlur stdDeviation="0.747527" result="effect1_foregroundBlur"/>
</filter>
<linearGradient id="paint0_linear" x1="-7.39393" y1="0" x2="-7.39393" y2="46.7879" gradientUnits="userSpaceOnUse">
<stop stop-color="#1E0202"/>
<stop offset="1" stop-color="#770707"/>
</linearGradient>
<linearGradient id="paint1_linear" x1="2.27593" y1="3.5682" x2="2.27593" y2="21.1698" gradientUnits="userSpaceOnUse">
<stop stop-color="#F81B0D"/>
<stop offset="0.651689" stop-color="#FF0509"/>
<stop offset="1" stop-color="#D10004"/>
</linearGradient>
<linearGradient id="paint2_linear" x1="10.0688" y1="6.67949" x2="10.0688" y2="10.3488" gradientUnits="userSpaceOnUse">
<stop stop-color="#FFAFA9"/>
<stop offset="1" stop-color="#FF060A"/>
</linearGradient>
<linearGradient id="paint3_linear" x1="7.56457" y1="14.9191" x2="7.56457" y2="19.0992" gradientUnits="userSpaceOnUse">
<stop stop-color="#FF060A"/>
<stop offset="0.999372" stop-color="#FF6E63"/>
</linearGradient>
<linearGradient id="paint4_linear" x1="8.9495" y1="14.9579" x2="9.65387" y2="18.4819" gradientUnits="userSpaceOnUse">
<stop stop-color="#F8F7F1"/>
<stop offset="1" stop-color="#E5E1CA"/>
</linearGradient>
<linearGradient id="paint5_linear" x1="4.23966" y1="14.6871" x2="5.21598" y2="16.2624" gradientUnits="userSpaceOnUse">
<stop stop-color="#F8F7F1"/>
<stop offset="1" stop-color="#E5E1CA"/>
</linearGradient>
<linearGradient id="paint6_linear" x1="15.6217" y1="12.7391" x2="16.8562" y2="18.8365" gradientUnits="userSpaceOnUse">
<stop stop-color="#F8F7F1"/>
<stop offset="1" stop-color="#E5E1CA"/>
</linearGradient>
<linearGradient id="paint7_linear" x1="5.75254" y1="9.02654" x2="2.56554" y2="15.2693" gradientUnits="userSpaceOnUse">
<stop stop-color="#F8F7F1"/>
<stop offset="1" stop-color="#E5E1CA"/>
</linearGradient>
<linearGradient id="paint8_linear" x1="13.2596" y1="19.4474" x2="13.2596" y2="22.9028" gradientUnits="userSpaceOnUse">
<stop stop-color="#6C4523"/>
<stop offset="1" stop-color="#9D836C"/>
</linearGradient>
<linearGradient id="paint9_linear" x1="25.5965" y1="11.5002" x2="27.3144" y2="15.1685" gradientUnits="userSpaceOnUse">
<stop stop-color="#F8F7F1"/>
<stop offset="1" stop-color="#E5E1CA"/>
</linearGradient>
<radialGradient id="paint10_radial" cx="0" cy="0" r="1" gradientUnits="userSpaceOnUse" gradientTransform="translate(16 23.7328) rotate(90) scale(6.01407 9.76991)">
<stop stop-color="#EAD2BA"/>
<stop offset="1" stop-color="#D6BEA6"/>
</radialGradient>
</defs>
</svg>

<svg width="32" height="32" fill="none" xmlns="http://www.w3.org/2000/svg"><path d="M32 16c0-2.094-.417-4.188-1.218-6.123a16.046 16.046 0 00-3.468-5.19 16.046 16.046 0 00-5.191-3.47A16.055 16.055 0 0016 0c-2.094 0-4.188.417-6.123 1.218a16.047 16.047 0 00-5.19 3.468 16.047 16.047 0 00-3.47 5.191A16.054 16.054 0 000 16c0 2.094.417 4.188 1.218 6.123a16.046 16.046 0 003.468 5.19 16.046 16.046 0 005.191 3.47A16.054 16.054 0 0016 32c2.094 0 4.188-.417 6.123-1.218a16.046 16.046 0 005.19-3.468 16.046 16.046 0 003.47-5.191A16.054 16.054 0 0032 16z" fill="url(#paint0_linear)"/><path fill-rule="evenodd" clip-rule="evenodd" d="M16 19.746c2.637 0 4.71-.151 6.344-.405 1.633-.253 2.828-.609 3.67-1.15.844-.542 1.335-1.27 1.632-2.103.297-.834.398-1.773.232-2.88a8.801 8.801 0 00-1.414-3.588c-.816-1.207-2.015-2.348-3.625-3.349-1.61-1-3.633-1.861-6.839-1.861-3.206 0-5.228.86-6.839 1.861-1.61 1.001-2.809 2.142-3.625 3.35a8.8 8.8 0 00-1.414 3.588c-.166 1.106-.065 2.045.232 2.879.297.833.788 1.561 1.632 2.103.842.541 2.037.897 3.67 1.15 1.634.254 3.707.405 6.344.405z" fill="url(#paint1_linear)"/><g filter="url(#filter0_f)"><path fill-rule="evenodd" clip-rule="evenodd" d="M16 10.349c2.638 0 5.287-.31 6.749-.552 1.461-.243 1.736-.42 1.8-.63.064-.211-.083-.457-.623-.957-.54-.5-1.472-1.255-2.651-1.905-1.18-.65-2.607-1.195-5.275-1.253-2.668.058-4.095.603-5.275 1.253a13.856 13.856 0 00-2.65 1.905c-.54.5-.687.746-.624.957.064.21.339.387 1.8.63 1.462.243 4.11.552 6.749.552z" fill="url(#paint2_linear)"/></g><g filter="url(#filter1_f)"><path fill-rule="evenodd" clip-rule="evenodd" d="M16 14.037c3.277 0 5.95.13 7.545.516 1.595.387 2.113 1.03 2.392 1.454.278.424.317.628.247.863-.07.236-.251.503-.824.797-.573.294-1.539.616-2.857.895-1.318.278-2.99.514-6.503.537-3.513-.023-5.185-.259-6.503-.537-1.318-.279-2.284-.6-2.857-.895-.573-.294-.753-.561-.824-.797-.07-.235-.031-.439.247-.863.28-.424.797-1.067 2.392-1.454 1.595-.386 4.268-.516 7.545-.516z" fill="url(#paint3_linear)"/></g><path fill-rule="evenodd" clip-rule="evenodd" d="M9.89 15.097c-.694.664-.588 1.919.194 2.517.781.598 2.236.538 2.93-.126s.625-1.932-.156-2.53c-.78-.597-2.275-.524-2.969.14z" fill="url(#paint4_linear)"/><path fill-rule="evenodd" clip-rule="evenodd" d="M4.968 16.5c.158-.088.192-.692.069-1.203-.123-.51-.402-.929-.56-.84-.159.09-.195.687-.072 1.198.123.51.405.935.563.846z" fill="url(#paint5_linear)"/><path fill-rule="evenodd" clip-rule="evenodd" d="M17.502 12.67c-1.352 1.005-1.397 3.244-.232 4.419 1.166 1.175 3.543 1.286 4.894.282 1.351-1.005 1.678-3.126.512-4.301-1.166-1.175-3.823-1.405-5.174-.4z" fill="url(#paint6_linear)"/><path fill-rule="evenodd" clip-rule="evenodd" d="M5.615 12.366c-.487.98-.4 2.176.246 2.7.646.522 1.85.373 2.737-.254.888-.628 1.46-1.733 1.345-2.638a1.823 1.823 0 00-1.85-1.58c-.93.029-1.991.792-2.478 1.772z" fill="url(#paint7_linear)"/><path fill-rule="evenodd" clip-rule="evenodd" d="M15.428 6.55c-.179.353-.026.824.374 1.058.4.234 1.045.232 1.463.02.418-.211.61-.632.466-.984-.144-.352-.622-.634-1.117-.658-.495-.024-1.007.21-1.186.564z" fill="#F8F7F1"/><path fill-rule="evenodd" clip-rule="evenodd" d="M21.583 19.447c-1.504.19-3.34.299-5.583.299-2.244 0-4.08-.11-5.583-.299-.822 3.794-.821 4.646-.768 5.25.054.618.162.976.467 1.314.304.338.804.654 1.72.936.879.27 2.14.508 4.164.533 2.024-.025 3.285-.263 4.164-.533.916-.282 1.416-.598 1.72-.936.305-.338.413-.696.467-1.313.053-.605.054-1.457-.768-5.25z" fill="url(#paint8_linear)"/><path fill-rule="evenodd" clip-rule="evenodd" d="M11.665 5.066c-.966.328-1.777.751-2.504 1.203-.286.178-.56.36-.82.547-.313.318-.408.814-.065.974.34.16 1.11-.007 1.844-.31.735-.301 1.435-.738 1.813-1.201.377-.463.432-.95.162-1.128-.103-.069-.255-.093-.43-.085zM20.202 5.378c-.553-.122-1.077-.122-1.386.048-.308.17-.402.511-.375.915.027.403.173.87.594 1.368a4.652 4.652 0 001.868 1.298c.752.27 1.559.28 2.084.097.526-.183.77-.56.78-.934.01-.374-.216-.748-.563-1.11a5.963 5.963 0 00-1.342-1.016c-.526-.3-1.107-.544-1.66-.666z" fill="#F8F7F1"/><path fill-rule="evenodd" clip-rule="evenodd" d="M27.912 14.981a6.356 6.356 0 00-.024-1.772 8.547 8.547 0 00-.457-1.716c-.39-.48-.675-.54-.96-.458a.753.753 0 00-.476.375c-.114.214-.161.536-.147.955.014.42.09.938.23 1.356.142.419.348.738.587 1.012.381.439.849.764 1.247.248z" fill="url(#paint9_linear)"/><g filter="url(#filter2_f)"><path fill-rule="evenodd" clip-rule="evenodd" d="M16 26.74c1.52 0 2.948-.25 3.824-.498.875-.248 1.199-.493 1.38-.768.182-.274.221-.578.206-1.177a29.393 29.393 0 00-.157-2.163c-.073-.672-.151-1.123-.522-1.304-.37-.18-1.032-.09-1.612-.01-.58.08-1.079.149-1.842.183-.763.034-1.79.034-2.554 0-.763-.034-1.262-.103-1.842-.183-.58-.08-1.242-.17-1.612.01-.37.18-.449.632-.522 1.304a29.339 29.339 0 00-.157 2.163c-.015.599.024.903.206 1.177.181.275.505.52 1.38.768.876.248 2.303.498 3.824.498z" fill="url(#paint10_radial)"/></g><defs><linearGradient id="paint0_linear" x1="-7.394" y1="0" x2="-7.394" y2="46.788" gradientUnits="userSpaceOnUse"><stop stop-color="#1E0202"/><stop offset="1" stop-color="#770707"/></linearGradient><linearGradient id="paint1_linear" x1="2.276" y1="3.568" x2="2.276" y2="21.17" gradientUnits="userSpaceOnUse"><stop stop-color="#F81B0D"/><stop offset=".652" stop-color="#FF0509"/><stop offset="1" stop-color="#D10004"/></linearGradient><linearGradient id="paint2_linear" x1="10.069" y1="6.679" x2="10.069" y2="10.349" gradientUnits="userSpaceOnUse"><stop stop-color="#FFAFA9"/><stop offset="1" stop-color="#FF060A"/></linearGradient><linearGradient id="paint3_linear" x1="7.565" y1="14.919" x2="7.565" y2="19.099" gradientUnits="userSpaceOnUse"><stop stop-color="#FF060A"/><stop offset=".999" stop-color="#FF6E63"/></linearGradient><linearGradient id="paint4_linear" x1="8.95" y1="14.958" x2="9.654" y2="18.482" gradientUnits="userSpaceOnUse"><stop stop-color="#F8F7F1"/><stop offset="1" stop-color="#E5E1CA"/></linearGradient><linearGradient id="paint5_linear" x1="4.24" y1="14.687" x2="5.216" y2="16.262" gradientUnits="userSpaceOnUse"><stop stop-color="#F8F7F1"/><stop offset="1" stop-color="#E5E1CA"/></linearGradient><linearGradient id="paint6_linear" x1="15.622" y1="12.739" x2="16.856" y2="18.837" gradientUnits="userSpaceOnUse"><stop stop-color="#F8F7F1"/><stop offset="1" stop-color="#E5E1CA"/></linearGradient><linearGradient id="paint7_linear" x1="5.753" y1="9.027" x2="2.566" y2="15.269" gradientUnits="userSpaceOnUse"><stop stop-color="#F8F7F1"/><stop offset="1" stop-color="#E5E1CA"/></linearGradient><linearGradient id="paint8_linear" x1="13.26" y1="19.447" x2="13.26" y2="22.903" gradientUnits="userSpaceOnUse"><stop stop-color="#6C4523"/><stop offset="1" stop-color="#9D836C"/></linearGradient><linearGradient id="paint9_linear" x1="25.596" y1="11.5" x2="27.314" y2="15.168" gradientUnits="userSpaceOnUse"><stop stop-color="#F8F7F1"/><stop offset="1" stop-color="#E5E1CA"/></linearGradient><filter id="filter0_f" x="5.942" y="3.556" width="20.115" height="8.287" filterUnits="userSpaceOnUse" color-interpolation-filters="sRGB"><feFlood flood-opacity="0" result="BackgroundImageFix"/><feBlend in="SourceGraphic" in2="BackgroundImageFix" result="shape"/><feGaussianBlur stdDeviation=".748" result="effect1_foregroundBlur"/></filter><filter id="filter1_f" x="4.29" y="12.542" width="23.419" height="8.052" filterUnits="userSpaceOnUse" color-interpolation-filters="sRGB"><feFlood flood-opacity="0" result="BackgroundImageFix"/><feBlend in="SourceGraphic" in2="BackgroundImageFix" result="shape"/><feGaussianBlur stdDeviation=".748" result="effect1_foregroundBlur"/></filter><filter id="filter2_f" x="9.092" y="19.231" width="13.816" height="9.004" filterUnits="userSpaceOnUse" color-interpolation-filters="sRGB"><feFlood flood-opacity="0" result="BackgroundImageFix"/><feBlend in="SourceGraphic" in2="BackgroundImageFix" result="shape"/><feGaussianBlur stdDeviation=".748" result="effect1_foregroundBlur"/></filter><radialGradient id="paint10_radial" cx="0" cy="0" r="1" gradientUnits="userSpaceOnUse" gradientTransform="matrix(0 6.01407 -9.76991 0 16 23.733)"><stop stop-color="#EAD2BA"/><stop offset="1" stop-color="#D6BEA6"/></radialGradient></defs></svg>
